app/img/icons/pin-map.svg

<svg width="20" height="20" viewBox="0 0 20 20" fill="none" xmlns="http://www.w3.org/2000/svg">
<path d="M14.2232 10.4974C15.9586 10.8995 17.2496 12.4445 17.2496 14.3069C17.2496 16.4657 15.493 18.2223 13.3343 18.2223C11.7258 18.2223 10.329 17.2487 9.73642 15.8519C9.5248 15.3863 9.41895 14.8572 9.41895 14.3069C9.41895 12.1482 11.1755 10.3916 13.3343 10.3916C13.6306 10.3916 13.9269 10.4339 14.2232 10.4974Z" fill="#D4E1F4"/>
<path d="M8.31726 10.8783C6.34899 10.8783 4.76172 9.29098 4.76172 7.32275C4.76172 5.35453 6.34903 3.76721 8.31726 3.76721C10.2855 3.76721 11.8728 5.35453 11.8728 7.32275C11.8728 9.29098 10.2855 10.8783 8.31726 10.8783ZM8.31726 5.03702C7.04741 5.03702 6.03156 6.05291 6.03156 7.32271C6.03156 8.59252 7.04746 9.60841 8.31726 9.60841C9.58706 9.60841 10.603 8.59252 10.603 7.32271C10.603 6.05291 9.5871 5.03702 8.31726 5.03702Z" fill="#5E60A3"/>
<path d="M18.8365 18.8995L16.9741 17.0371C17.5455 16.2752 17.8841 15.3228 17.8841 14.3069C17.8841 12.4445 16.7836 10.8148 15.1116 10.1164C15.1327 10.0529 15.1751 9.98943 15.1963 9.92595C15.5137 9.12172 15.6619 8.27516 15.6619 7.36511C15.6619 3.30159 12.3603 0 8.31795 0C5.86292 0 3.68304 1.14285 2.2862 3.15345C0.910542 5.14286 0.593071 7.68255 1.43963 9.92595C1.67244 10.5397 2.03224 11.1323 2.49782 11.6826L7.83115 17.9259C7.95814 18.0741 8.12743 18.1587 8.31791 18.1587C8.50838 18.1587 8.67771 18.0741 8.80467 17.9471L9.63008 16.9736C10.4766 18.1587 11.8312 18.8783 13.3338 18.8783C14.3708 18.8783 15.3021 18.5397 16.064 17.9471L17.9476 19.8095C18.0746 19.9365 18.2227 20 18.392 20C18.5613 20 18.7095 19.9365 18.8364 19.8095C19.0905 19.5344 19.0905 19.1323 18.8365 18.8995ZM8.31795 16.5291L3.47142 10.836C3.09047 10.3916 2.81533 9.92595 2.62485 9.46034C1.92643 7.59788 2.20157 5.50266 3.32323 3.85187C4.46608 2.20107 6.2862 1.2487 8.29676 1.2487C11.6407 1.2487 14.3708 3.97886 14.3708 7.34393C14.3708 8.08468 14.2438 8.7831 13.9899 9.46034C13.9476 9.56615 13.9052 9.67196 13.8629 9.77781C13.6724 9.75666 13.5031 9.73547 13.3338 9.73547C10.8153 9.73547 8.78352 11.7672 8.78352 14.2858C8.78352 14.7725 8.86819 15.2593 9.01633 15.7037L8.31795 16.5291ZM10.3285 15.5979C10.3285 15.5979 10.3074 15.5979 10.3285 15.5979C10.1592 15.2169 10.0534 14.7725 10.0534 14.3069C10.0534 12.508 11.5349 11.0265 13.3338 11.0265C13.5455 11.0265 13.7995 11.0476 14.0746 11.1111C15.5773 11.4497 16.6143 12.7619 16.6143 14.3069C16.6143 16.1058 15.1328 17.5873 13.3338 17.5873C12.0217 17.5873 10.8365 16.8042 10.3285 15.5979Z" fill="#5E60A3"/>
</svg>

<svg width="20" height="20" fill="none" xmlns="http://www.w3.org/2000/svg"><path d="M14.223 10.497a3.905 3.905 0 013.027 3.81 3.92 3.92 0 01-3.916 3.915 3.91 3.91 0 01-3.598-2.37 3.737 3.737 0 01-.317-1.545 3.92 3.92 0 013.915-3.915c.297 0 .593.042.89.105z" fill="#D4E1F4"/><path d="M8.317 10.878a3.55 3.55 0 01-3.555-3.555 3.55 3.55 0 013.555-3.556 3.55 3.55 0 013.556 3.556 3.55 3.55 0 01-3.556 3.555zm0-5.841a2.276 2.276 0 00-2.285 2.286 2.276 2.276 0 002.285 2.285 2.276 2.276 0 002.286-2.285 2.276 2.276 0 00-2.286-2.286z" fill="#5E60A3"/><path d="M18.837 18.9l-1.863-1.863c.572-.762.91-1.714.91-2.73 0-1.863-1.1-3.492-2.772-4.19.02-.064.063-.128.084-.191.318-.804.466-1.65.466-2.56C15.662 3.301 12.36 0 8.318 0 5.863 0 3.683 1.143 2.286 3.153a7.362 7.362 0 00-.846 6.773 6.08 6.08 0 001.058 1.757l5.333 6.243a.633.633 0 00.487.233.69.69 0 00.487-.212l.825-.973a4.524 4.524 0 003.704 1.904 4.39 4.39 0 002.73-.93l1.884 1.861a.609.609 0 00.889 0c.253-.275.253-.677 0-.91zm-10.52-2.37l-4.846-5.694a5.043 5.043 0 01-.846-1.376c-.699-1.862-.423-3.957.698-5.608a5.982 5.982 0 014.974-2.603c3.344 0 6.074 2.73 6.074 6.095 0 .74-.127 1.44-.381 2.116l-.127.318c-.19-.021-.36-.043-.53-.043a4.543 4.543 0 00-4.55 4.55c0 .488.085.974.233 1.419l-.698.825zm2.011-.932s-.02 0 0 0a3.202 3.202 0 01-.275-1.291 3.297 3.297 0 013.28-3.28c.213 0 .466.02.742.084a3.244 3.244 0 012.54 3.196 3.297 3.297 0 01-3.281 3.28 3.258 3.258 0 01-3.005-1.99z" fill="#5E60A3"/></svg>
